X:943
T:Sleep Soond in da Mornin'
T:Sleep Sound in the Morning
R:reel
O:Shetland
Z:id:hn-reel-943
M:C|
L:1/8
K:Ador
Aa2g a2ef | gedB GABG | Aa2g a2ef |1 gedB A3G :|2 gedB A3B ||
|: cAeA cAeA | BcdB G3B |1 cAeA cAeA | BAGB A3B :|2 ABcd efga | gedB A3G ||

